!!!COM:	Bach, Johann Sebastian
!!!CDT:	1685/02/21/-1750/07/28/
!!!OTL@@DE:	Jesu Leiden, Pein und Tod
!!!SCT:	BWV 245/28
!!!PC#:	106
!!!AGN:	chorale
**kern	**kern	**kern	**kern
*ICvox	*ICvox	*ICvox	*ICvox
*Ibass	*Itenor	*Ialto	*Isoprn
*I"Bass	*I"Tenor	*I"Alto	*I"Soprano
*clefF4	*clefGv2	*clefG2	*clefG2
*k[f#c#g#]	*k[f#c#g#]	*k[f#c#g#]	*k[f#c#g#]
*A:	*A:	*A:	*A:
*M4/4	*M4/4	*M4/4	*M4/4
*met(c)	*met(c)	*met(c)	*met(c)
*MM100	*MM100	*MM100	*MM100
=1-	=1-	=1-	=1-
4A	4e	4a	4cc#
4E	4e	4g#	4b
4C#	4e	4a	4a
4E	4e	4g#	4b
=2	=2	=2	=2
4AA	4e	8aL	4cc#
.	.	8g#J	.
4BB	4B	4f#	4dd#
2E;	2B;	2g#;	2ee;
=3	=3	=3	=3
4B	4dnX	4b	4ff#
4G#	4B	4b	4ee
4E	4e	4g#	4ddnX
4A	4e	4a	8cc#L
.	.	.	8bJ
=4	=4	=4	=4
4D	4f#	4a	2b
4E	8eL	4g#	.
.	8dJ	.	.
2AA;	2c#;	2e;	2a;
=5	=5	=5	=5
4A	4e	4a	4cc#
4G#	4e	4b	4ee
4F#	4f#	4a	4dd
4E	4c#	4g#	4cc#
=6	=6	=6	=6
4D	4d	4f#	4b
8C#L	4d	4f#	4a
8BBJ	.	.	.
2C#;	2G#;	2e#;	2g#;
=7	=7	=7	=7
4F#	4F#	4c#	4a
4E	4G#	4enX	4b
4A	4A	4e	4cc#
4G#	4B	4e	8cc#L
.	.	.	16ddL
.	.	.	16eeJJ
=8	=8	=8	=8
4F#	4f#	4a	2dd
4G#	4e	4b	.
2A;	2e;	2a;	2cc#;
=9	=9	=9	=9
4A	4e	4a	4cc#
4F#	4d	4a	4dd
4C#	4c#	4a	4ee
4D	4B	4a	4dd
=10	=10	=10	=10
4E	8c#L	4a	4cc#
.	8dJ	.	.
4E	4e	4g#	4b
2AA;	2e;	2a;	2cc#;
=11	=11	=11	=11
8EL	4e	4g#	4b
8F#J	.	.	.
4G#	4B	4e	4b
4F#	4A	4a	8cc#L
.	.	.	8dd#J
4E	4B	4g#	4ee
=12	=12	=12	=12
4A	4c#	2f#	4ee
4B	4B	.	4dd#
2E;	2B;	2g#;	2ee;
=13	=13	=13	=13
4G	4B-	4g	4ee
4A	4A	4g	4cc#
4D	8AL	8f#L	4.ff#
.	8BJ	8g#J	.
4C#	4c#	4a	.
.	.	.	8ee
=14	=14	=14	=14
4BB	4d	8aL	4dd
.	.	8g#J	.
4AA	4e	4a	8cc#L
.	.	.	8bJ
2E;	2e;	2g#;	2b;
=15	=15	=15	=15
4A	4e	4a	4cc#
4G#	4e	4b	4ee
4F#	4f#	4a	4dd
4E	4f#	4a	8cc#L
.	.	.	8bJ
=16	=16	=16	=16
4D#	4f#	4a	2b
4E	8eL	4g#	.
.	8dJ	.	.
2AA;	2c#;	2e;	2a;
==	==	==	==
*-	*-	*-	*-
!!!hum2abc: -Q ''
!!!title: @{PC#}. @{OTL@@DE}
!!!YOR1: 371 vierstimmige Choralges&auml;nge von Johann Sebastian Bach, 
!!!YOR2: 4th ed. by Alfred D&ouml;rffel (Leipzig: Breitkopf und H&auml;rtel, 
!!!YOR2: c.1875). 178 pp. Plate "V.A.10".  reprint: J.S. Bach, 371 Four-Part 
!!!YOR4: Chorales (New York: Associated Music Publishers, Inc., c.1940).
!!!SMS: B&H, 4th ed, Alfred D&ouml;rffel, c.1875, plate V.A.10
!!!EED:  Craig Stuart Sapp
!!!EEV:  2009/05/22
